X:1
T:Bradnor, CM
T:Bradnor, CM
T:Carmina Sacra, by Lowell Mason, 1841
T:Public Domain Courtesy of the Cyber Hymnal™
C:Carmina Sacra, by Lowell Mason, 1841
Z:Public Domain
Z:Courtesy of the Cyber Hymnal™
%%score ( 1 2 ) ( 3 4 )
L:1/8
Q:1/4=108
M:2/4
K:F
V:1 treble 
V:2 treble 
V:3 bass 
V:4 bass 
V:1
 [FA]2 [FA][EG] | [DF]2 [GB]2 | [FA]2 [EG]2 | [FA]2 [FA]2 | [FB]2 [FA]2 | (AG) (FA) | [EG]4- | %7
 [EG] z ([A,F][CG]) | [FA]2 [FA][EG] | [DF]2 [GB]2 | [FA]2 [EG]2 | !fermata![FA]2 [EG]2 | %12
 ([DF][EG]) [FA]2 | [FG]2 [EG]2 | F4- | F z3 |] %16
V:2
 x4 | x4 | x4 | x4 | x4 | E2 F2 | x4 | x4 | x4 | x4 | x4 | x4 | x4 | x4 | F4- | F x3 |] %16
V:3
 [F,C]2 [F,C][C,B,] | [D,A,]2 [B,,D]2 | [C,C]2 [C,C]2 | [F,C]2 [F,C]2 | [F,D]2 [F,C]2 | [B,C]2 C2 | %6
 [C,C]4- | [C,C] z3 | [F,C]2 [F,C][C,B,] | [D,A,]2 [B,,D]2 | [C,C]2 [C,C]2 | %11
 !fermata![F,C]2 [C,C]2 | ([D,A,][C,C]) [F,C]2 | [B,,D]2 (CB,) | [F,A,]4- | [F,A,] z3 |] %16
V:4
 x4 | x4 | x4 | x4 | x4 | x2 (A,F,) | x4 | x4 | x4 | x4 | x4 | x4 | x4 | x2 C,2 | x4 | x4 |] %16

